X:1
T: Pate Baillie's Jig
C:
R:Jig
Q:180
K:Em
M:6/8
L:1/16
|:e2|E4E2 E4d2|B4A2 B4d2|A2F2D2 D2E2F2|A2F2D2 D2E2F2|E4E2 E4d2|B4A2 B4A2|B2^c2d2 A2F2D2|E6E4:|
|:F2|G4B2 B2c2B2|G4B2 B2c2B2|F4A2 D4A2|F2A2F2 D2E2F2|G4B2 B2c2B2|G4B2 B2c2B2|d2c2B2 A2G2F2|E6E4:|
|:^d2|e2e2e2 E2E2E2|e2e2e2 E2E2E2|d2d2d2 D2D2D2|d2d2d2 D2D2D2|
|1e2e2e2 E2E2E2|e2e2e2 E2E2E2|d2c2B2 A2G2F2|E6E4:|
|2G2G2G2 F2F2F2|E2E2E2 e2e2e2|d2c2B2 A2G2F2|E6E4||
